X:1
T:Blacksburg, 88.88.88.86
T:Blacksburg, 88.88.88.86
T:Robert Lowry, 1873
T:Public Domain Courtesy of the Cyber Hymnal™
C:Robert Lowry, 1873
Z:Public Domain
Z:Courtesy of the Cyber Hymnal™
%%score ( 1 2 ) ( 3 4 )
L:1/8
Q:1/4=100
M:6/8
K:G
V:1 treble 
V:2 treble 
V:3 bass 
V:4 bass 
V:1
 [B,D] | [DG]2 [DA] [GB]2 [DG] | [GB]2 [Ac] [Bd]2 [GB] | [EA]2 E [EA]2 [EG] | [DF]2 [^CE] [DF]2 D | %5
 [DG]2 [FA] [GB]2 [DG] | [GB]2 [Ac] [Bd]2 [GB] | [FA]2 [GB] [FA]2 [DG] | [DF]2 [^CE] D2 D | %9
 .[DG]2 [DG] .[DG]2 [DG] | (GA)[GB] [FA]2 [FA] | .[FA]2 [FA] .[FA]2 [FA] | %12
 ([FA][GB])[Ac] [GB]2 [DG] | [GB]2 [Gd] [Ge]2 [Gd] | [GB]2 [Gd] [Ge]2 [Gd] | [GB]2 [GB] (AB)[FA] | %16
 (G3- G2) |] %17
V:2
 x | x6 | x6 | x2 E x3 | x5 D | x6 | x6 | x6 | x3 D2 D | x6 | D2 x4 | x6 | x6 | x6 | x6 | x3 F2 x | %16
 G3- G2 |] %17
V:3
 G, | [G,B,]2 [G,C] [G,D]2 [G,B,] | [G,D]2 [G,D] [G,D]2 [G,,D] | [C,C]2 [C,G,] [C,C]2 [^C,A,] | %4
 [D,A,]2 [A,,A,] [D,A,]2 [C,A,] | [B,,G,]2 [D,D] [G,D]2 [G,B,] | [G,D]2 [G,D] [G,D]2 [G,D] | %7
 [D,D]2 [D,D] [D,D]2 [G,,B,] | [A,,A,]2 [A,,G,] [D,F,]2 [G,B,] | .[G,B,]2 [G,B,] .[G,B,]2 [G,B,] | %10
 (B,C)[G,D] [D,D]2 [D,D] | .[D,D]2 [D,D] .[D,D]2 [D,D] | [D,D]2 [D,D] [G,D]2 [G,B,] | %13
 [G,D]2 [G,B,] [G,C]2 [G,B,] | [G,D]2 [G,B,] [G,C]2 [G,B,] | [D,C]2 [D,C] [D,C]2 [D,C] | %16
 [G,,B,]3- [G,,B,]2 |] %17
V:4
 G, | x6 | x6 | x6 | x6 | x6 | x6 | x6 | x6 | x6 | G,2 x4 | x6 | x6 | x6 | x6 | x6 | x5 |] %17

